assets/images/img_location.svg

<svg width="49" height="19" viewBox="0 0 49 19" fill="none" xmlns="http://www.w3.org/2000/svg">
<path d="M14.6453 2.1875C15.0706 2.1875 15.2832 2.37651 15.2832 2.75452V4.80999C15.2832 5.188 15.0706 5.37701 14.6453 5.37701L13.7062 5.39473L13.5999 8.74372L14.3973 8.726C14.8225 8.726 15.0352 8.91501 15.0352 9.29303V11.4194C15.0352 11.7974 14.8225 11.9864 14.3973 11.9864L3.801 12.1636C3.37573 12.1636 3.1631 11.9746 3.1631 11.5966V9.47022C3.1631 9.09221 3.37573 8.9032 3.801 8.9032L4.63382 8.88548L4.58066 5.53649L3.67696 5.55421C3.2517 5.55421 3.03906 5.3652 3.03906 4.98718V2.93172C3.03906 2.5537 3.2517 2.3647 3.67696 2.3647L14.6453 2.1875ZM3.83644 16.3277C3.41117 16.3277 3.19854 16.1387 3.19854 15.7606V13.6697C3.19854 13.2917 3.41117 13.1027 3.83644 13.1027L14.5745 12.9255C14.9997 12.9255 15.2124 13.1145 15.2124 13.4925V15.5835C15.2124 15.9615 14.9997 16.1505 14.5745 16.1505L3.83644 16.3277ZM8.19544 8.83232L10.0383 8.79688L10.0737 5.44789L8.17772 5.48333L8.19544 8.83232Z" fill="#222222"/>
<path d="M21.3061 7.553V8.26178L23.6982 8.1909C24.1235 8.17909 24.3361 8.36809 24.3361 8.75792V10.7071C24.3361 10.9079 24.2829 11.0496 24.1766 11.1323C24.0703 11.215 23.9108 11.2623 23.6982 11.2741L18.4887 11.4513C18.2288 11.4631 18.0398 11.404 17.9216 11.2741C17.8153 11.1323 17.7622 10.9079 17.7622 10.6008L17.709 5.88736C17.709 5.58022 17.7622 5.3735 17.8685 5.26718C17.9748 5.14905 18.1638 5.07226 18.4355 5.03683L20.7036 4.71788L20.7213 3.99137L18.0988 4.07997C17.6736 4.1036 17.4609 3.91459 17.4609 3.51295V1.58152C17.4609 1.3807 17.5141 1.23894 17.6204 1.15625C17.7267 1.07356 17.8862 1.02631 18.0988 1.0145L23.6805 0.837301C23.9522 0.825488 24.1412 0.890459 24.2475 1.03222C24.3656 1.16216 24.4188 1.3807 24.407 1.68784L24.2652 6.45439C24.2534 6.76153 24.1944 6.97416 24.088 7.09229C23.9935 7.19861 23.8163 7.26358 23.5564 7.2872L21.3061 7.553ZM21.7313 17.6708C21.2234 17.6827 20.9694 17.3873 20.9694 16.7849V13.0638C20.9694 12.4731 21.2234 12.1778 21.7313 12.1778H24.1058C24.6137 12.1778 24.8677 12.4731 24.8677 13.0638V14.0561L31.6011 13.9143C32.0264 13.9025 32.239 14.1387 32.239 14.6231V16.7849C32.239 17.2456 32.0146 17.4818 31.5657 17.4936L21.7313 17.6708ZM26.1081 7.60616L25.3461 7.62388C24.9209 7.6475 24.7082 7.45849 24.7082 7.05685V4.61156C24.7082 4.41074 24.7614 4.26898 24.8677 4.18629C24.974 4.1036 25.1335 4.05635 25.3461 4.04453L26.1081 4.02681V2.07767C26.1081 1.48702 26.362 1.19169 26.87 1.19169H28.8014C29.3094 1.19169 29.5634 1.48702 29.5634 2.07767V11.2209C29.5634 11.8116 29.3094 12.1069 28.8014 12.1069H26.87C26.362 12.1069 26.1081 11.8116 26.1081 11.2209V7.60616ZM30.2367 1.90047C30.2367 1.30982 30.4907 1.0145 30.9986 1.0145H32.9301C33.438 1.0145 33.692 1.30982 33.692 1.90047V11.0437C33.692 11.6344 33.438 11.9297 32.9301 11.9297H30.9986C30.4907 11.9297 30.2367 11.6344 30.2367 11.0437V1.90047Z" fill="#222222"/>
<path d="M42.4489 10.0195L37.9305 12.1104C37.7178 12.2049 37.5406 12.2522 37.3989 12.2522C37.2571 12.2404 37.1331 12.1341 37.0268 11.9332L35.9636 9.84233C35.7864 9.49975 35.875 9.25168 36.2294 9.09811L39.8619 7.46792C40.0627 7.37341 40.2104 7.25528 40.3049 7.11353C40.4112 6.97177 40.4644 6.7296 40.4644 6.38703V5.89088L36.9736 5.94404C36.5483 5.94404 36.3357 5.75503 36.3357 5.37701V2.93172C36.3357 2.5537 36.5483 2.3647 36.9736 2.3647L47.8888 2.1875C48.3141 2.1875 48.5267 2.37651 48.5267 2.75452V5.19982C48.5267 5.57783 48.3141 5.76684 47.8888 5.76684L44.3981 5.83772V6.29843C44.3981 6.64101 44.4394 6.88317 44.5221 7.02493C44.6166 7.16668 44.7761 7.28481 45.0006 7.37932L48.633 8.97407C48.9993 9.12764 49.0938 9.38162 48.9166 9.73601L47.8888 11.7915C47.7943 11.9923 47.6703 12.0986 47.5167 12.1104C47.375 12.1104 47.1919 12.0632 46.9674 11.9687L42.4489 10.0195ZM37.0799 16.3277C36.6547 16.3277 36.442 16.1387 36.442 15.7606V13.6697C36.442 13.2917 36.6547 13.1027 37.0799 13.1027L47.818 12.9255C48.2432 12.9255 48.4559 13.1145 48.4559 13.4925V15.5835C48.4559 15.9615 48.2432 16.1505 47.818 16.1505L37.0799 16.3277Z" fill="#222222"/>
</svg>

<svg xmlns="http://www.w3.org/2000/svg" width="49" height="19" fill="none" viewBox="0 0 49 19"><path fill="#222" d="M14.645 2.188c.426 0 .638.189.638.567V4.81c0 .378-.212.567-.638.567l-.939.018-.106 3.349.797-.018c.425 0 .638.189.638.567v2.126c0 .378-.213.567-.638.567l-10.596.178c-.425 0-.638-.19-.638-.567V9.47c0-.378.213-.567.638-.567l.833-.018-.053-3.349-.904.018c-.425 0-.638-.189-.638-.567V2.932c0-.378.213-.567.638-.567l10.968-.178ZM3.836 16.328c-.425 0-.637-.19-.637-.567V13.67c0-.378.212-.567.637-.567l10.739-.178c.425 0 .637.19.637.567v2.091c0 .378-.212.568-.637.568l-10.739.177Zm4.36-7.496 1.842-.035.036-3.35-1.896.036.017 3.35Zm13.11-1.279v.709l2.392-.071c.425-.012.638.177.638.567v1.95c0 .2-.053.342-.16.424-.106.083-.265.13-.478.142l-5.21.177c-.26.012-.448-.047-.566-.177-.107-.142-.16-.366-.16-.673l-.053-4.714c0-.307.053-.513.16-.62.106-.118.295-.195.567-.23l2.268-.32.017-.726-2.622.089c-.425.024-.638-.165-.638-.567V1.582c0-.201.053-.343.16-.426.106-.082.265-.13.478-.141L23.68.837c.272-.012.461.053.567.195.119.13.172.349.16.656l-.142 4.766c-.012.308-.07.52-.177.638-.095.107-.272.172-.532.195l-2.25.266Zm.425 10.118c-.508.012-.762-.284-.762-.886v-3.721c0-.59.254-.886.762-.886h2.375c.508 0 .762.295.762.886v.992l6.733-.142c.425-.011.638.225.638.71v2.16c0 .462-.224.698-.673.71l-9.835.177Zm4.377-10.065-.762.018c-.425.024-.638-.166-.638-.567V4.612c0-.201.053-.343.16-.426.106-.082.266-.13.478-.141l.762-.018v-1.95c0-.59.254-.885.762-.885h1.931c.508 0 .762.295.762.886v9.143c0 .59-.254.886-.762.886H26.87c-.508 0-.762-.295-.762-.886V7.606ZM30.237 1.9c0-.59.254-.885.762-.885h1.931c.508 0 .762.295.762.885v9.144c0 .59-.254.886-.762.886H31c-.508 0-.762-.296-.762-.886V1.9Zm12.212 8.12-4.518 2.09c-.213.095-.39.142-.532.142-.142-.012-.266-.118-.372-.319l-1.063-2.09c-.178-.343-.089-.591.265-.745l3.633-1.63c.2-.095.348-.213.443-.354.106-.142.16-.384.16-.727v-.496l-3.491.053c-.426 0-.638-.189-.638-.567V2.932c0-.378.212-.567.638-.567l10.915-.178c.425 0 .638.19.638.568V5.2c0 .378-.213.567-.638.567l-3.49.07v.461c0 .343.04.585.123.727.095.142.254.26.479.354l3.632 1.595c.366.154.46.408.284.762l-1.028 2.055c-.095.201-.219.308-.372.32-.142 0-.325-.048-.55-.142l-4.518-1.95Zm-5.37 6.308c-.424 0-.637-.19-.637-.567V13.67c0-.378.213-.567.638-.567l10.738-.178c.425 0 .638.19.638.567v2.091c0 .378-.213.568-.638.568l-10.738.177Z"/></svg>
